images/customer-page-images/fedexlogo.svg

<svg width="140" height="42" viewBox="0 0 140 42" fill="none" xmlns="http://www.w3.org/2000/svg">
<g clip-path="url(#clip0_34_1685)">
<path d="M104.109 40.743L115.785 27.8118L104.109 14.8788H116.428L122.211 21.1608L127.779 14.8788H139.668L128.048 27.7584L139.828 40.743H127.458L121.728 34.4094L116.052 40.743H104.109Z" fill="#FF6600"/>
<path d="M104.109 9.081H90.886V14.8788H104.109V23.6166H90.886V31.6368H104.109V40.743H81.167V0H104.109V9.081Z" fill="#FF6600"/>
<path d="M71.4889 0V16.674H71.3824C69.2397 14.2464 66.5627 13.4028 63.4565 13.4028C57.0938 13.4028 52.301 17.6664 50.6185 23.3034C48.6999 17.0922 43.7518 13.2864 36.4146 13.2864C30.4561 13.2864 25.7509 15.9228 23.2954 20.2188V14.8794H10.979V9.0822H24.4197V0H0V40.7436H10.979V23.6166H21.9222C21.5959 24.8748 21.4218 26.2218 21.4218 27.6432C21.4218 36.1422 28.0085 42.1056 36.4146 42.1056C43.4834 42.1056 48.1417 38.8344 50.6057 32.8704H41.1971C39.9244 34.662 38.959 35.1942 36.4146 35.1942C33.4643 35.1942 30.9205 32.6568 30.9205 29.649H50.0786C50.9095 36.3996 56.2441 42.2214 63.5649 42.2214C66.7228 42.2214 69.6141 40.6902 71.3824 38.1048H71.4889V40.7424H81.1671V0H71.4889ZM31.2261 23.7384C31.8366 21.1506 33.8727 19.4592 36.4146 19.4592C39.2128 19.4592 41.1454 21.0984 41.6537 23.7384C41.8679 23.7384 31.2261 23.7384 31.2261 23.7384ZM65.6156 34.5396C62.048 34.5396 59.8311 31.263 59.8311 27.8418C59.8311 24.1848 61.7595 20.6682 65.6156 20.6682C69.6141 20.6682 71.207 24.1848 71.207 27.8418C71.2064 31.3098 69.5185 34.5396 65.6156 34.5396Z" fill="#652C8F"/>
</g>
<defs>
<clipPath id="clip0_34_1685">
<rect width="140" height="42" fill="white"/>
</clipPath>
</defs>
</svg>

<svg width="140" height="42" fill="none" xmlns="http://www.w3.org/2000/svg"><g clip-path="url(#a)"><path d="m104.109 40.743 11.676-12.931-11.676-12.933h12.319l5.783 6.282 5.568-6.282h11.889l-11.62 12.88 11.78 12.984h-12.37l-5.73-6.334-5.676 6.334h-11.943z" fill="#F60"/><path d="M104.109 9.081H90.886v5.798h13.223v8.738H90.886v8.02h13.223v9.106H81.167V0h22.942v9.081z" fill="#F60"/><path d="M71.489 0v16.674h-.107c-2.142-2.428-4.82-3.271-7.926-3.271-6.362 0-11.155 4.263-12.838 9.9-1.918-6.21-6.866-10.017-14.203-10.017-5.959 0-10.664 2.637-13.12 6.933v-5.34H10.98V9.082h13.44V0H0v40.744h10.979V23.617h10.943a16.013 16.013 0 0 0-.5 4.026c0 8.5 6.587 14.463 14.993 14.463 7.068 0 11.727-3.272 14.19-9.236h-9.408c-1.273 1.792-2.238 2.324-4.782 2.324-2.95 0-5.494-2.537-5.494-5.545h19.158c.83 6.75 6.165 12.572 13.486 12.572a9.415 9.415 0 0 0 7.817-4.116h.107v2.637h9.678V0H71.49zM31.226 23.738c.61-2.587 2.647-4.279 5.189-4.279 2.798 0 4.73 1.64 5.239 4.28H31.226zm34.39 10.802c-3.568 0-5.785-3.277-5.785-6.698 0-3.657 1.928-7.174 5.785-7.174 3.998 0 5.591 3.517 5.591 7.174 0 3.468-1.688 6.698-5.591 6.698z" fill="#652C8F"/></g><defs><clipPath id="a"><path fill="#fff" d="M0 0h140v42H0z"/></clipPath></defs></svg>
